assets/Thermometer/Flat/thermometer_flat.svg

<svg width="32" height="32" viewBox="0 0 32 32" fill="none" xmlns="http://www.w3.org/2000/svg">
<path d="M21.74 16.08L8.83 3.17C7.27 1.61 4.74 1.61 3.17 3.17C1.61 4.73 1.61 7.26 3.17 8.83L16.08 21.74C15.69 23.92 16.34 26.24 18.02 27.92C20.75 30.65 25.19 30.65 27.92 27.92C30.65 25.19 30.65 20.75 27.92 18.02C26.24 16.34 23.92 15.7 21.74 16.08Z" fill="#F4F4F4"/>
<path d="M4.59 7.42002C3.81 6.64002 3.81 5.37 4.59 4.59C5.37 3.81 6.63 3.81 7.42 4.59L21.1439 18.3139C21.7096 18.0919 22.3255 17.97 22.97 17.97C25.7314 17.97 27.97 20.2085 27.97 22.97C27.97 25.7314 25.7314 27.97 22.97 27.97C20.2085 27.97 17.97 25.7314 17.97 22.97C17.97 22.3255 18.0919 21.7096 18.3139 21.1439L4.59 7.42002Z" fill="#F8312F"/>
<path d="M10.23 4.59998L8.11 6.71997C7.72 7.10997 7.72 7.74997 8.11 8.12997C8.5 8.51997 9.13 8.51997 9.52 8.12997L11.64 6.00998L10.23 4.59998ZM12.35 10.97L14.47 8.84998L15.88 10.26L13.76 12.38C13.37 12.77 12.74 12.77 12.35 12.38C11.96 11.99 11.96 11.36 12.35 10.97ZM16.59 15.21L18.71 13.09L20.12 14.5L18 16.62C17.61 17.01 16.98 17.01 16.59 16.62C16.2 16.23 16.2 15.6 16.59 15.21Z" fill="black"/>
<path d="M24.97 23.97C26.0745 23.97 26.97 23.0745 26.97 21.97C26.97 20.8654 26.0745 19.97 24.97 19.97C23.8654 19.97 22.97 20.8654 22.97 21.97C22.97 23.0745 23.8654 23.97 24.97 23.97Z" fill="#FF8687"/>
</svg>

<svg xmlns="http://www.w3.org/2000/svg" width="32" height="32" fill="none"><path fill="#F4F4F4" d="M21.74 16.08 8.83 3.17a4.008 4.008 0 0 0-5.66 0 4.008 4.008 0 0 0 0 5.66l12.91 12.91c-.39 2.18.26 4.5 1.94 6.18a7.007 7.007 0 0 0 9.9 0 7.007 7.007 0 0 0 0-9.9c-1.68-1.68-4-2.32-6.18-1.94Z"/><path fill="#F8312F" d="M4.59 7.42c-.78-.78-.78-2.05 0-2.83.78-.78 2.04-.78 2.83 0l13.724 13.724a5 5 0 1 1-2.83 2.83L4.59 7.42Z"/><path fill="#000" d="M10.23 4.6 8.11 6.72a.996.996 0 1 0 1.41 1.41l2.12-2.12-1.41-1.41Zm2.12 6.37 2.12-2.12 1.41 1.41-2.12 2.12a.996.996 0 1 1-1.41-1.41Zm4.24 4.24 2.12-2.12 1.41 1.41L18 16.62a.996.996 0 1 1-1.41-1.41Z"/><path fill="#FF8687" d="M24.97 23.97a2 2 0 1 0 0-4 2 2 0 0 0 0 4Z"/></svg>
